X:25
T:Plang sur la mort de Richard Coeur de Lion
C:Gaucelm Faidit
O:1199
M:3/4
L:1/4
K:Em
ee(e/d/) | (dc)(c/d/) | (e=f)e | d(dc) | (BA)z | ed(d/c/) | (BA)A/B/ |
cB(B//A//G/) | A2(A/B/) | B2z | B(cd) | (c/B/)AB | c2B//A//G/ | A2A/G/ |
G2z | ddd/e/ | g2f/e/ | d2e | d2c | (d//B//G/) AB z | de(d//c//B/) |
(BA)e | ee2 | de/=f/g | (=f//e//d/) (e//d//c/)z | (c//B//A/) Bc  | d2e | A2(c//B//A/) |
(G/F/)GA | A2(B | (B/A/ G/))z/ (e//d//c//B//) | (B//c//d//c//)AB | c2(B/A/) | G2A/G/ |
GFz | ABB//A//G/ | G2B | d(de) | dcB | (c/B/)Az | eed |
(e//f//g/)dc | (B/A/)G(A/B/) | (d/c/)B(c/B/) | (BA)z |]




%%header "$P0	 $IR 	$P1"
%%footer $D - Éditions Galouvielle - 2009 - À usage librement privé dans le cadre familial

